topics/special-relativity/Latex/images/svg/circular_waves_doppler_effect.svg

<?xml version="1.0" encoding="UTF-8"?>
<svg xmlns="http://www.w3.org/2000/svg" xmlns:xlink="http://www.w3.org/1999/xlink" width="234.854pt" height="227.17pt" viewBox="0 0 234.854 227.17" version="1.1">
<defs>
<clipPath id="clip1">
  <path d="M 0 0 L 233 0 L 233 227.171875 L 0 227.171875 Z M 0 0 "/>
</clipPath>
<clipPath id="clip2">
  <path d="M 212 94 L 234.855469 94 L 234.855469 133 L 212 133 Z M 212 94 "/>
</clipPath>
</defs>
<g id="surface1">
<path style=" stroke:none;fill-rule:nonzero;fill:rgb(100%,89.411926%,78.431702%);fill-opacity:1;" d="M 0 227.171875 L 234.855469 227.171875 L 234.855469 0 L 0 0 Z M 0 227.171875 "/>
<g clip-path="url(#clip1)" clip-rule="nonzero">
<path style="fill:none;stroke-width:0.3985;stroke-linecap:butt;stroke-linejoin:miter;stroke:rgb(100%,0%,0%);stroke-opacity:1;stroke-miterlimit:10;" d="M 113.387656 -0.0009375 C 113.387656 62.624062 62.622031 113.385781 0.0009375 113.385781 C -62.624062 113.385781 -113.385781 62.624062 -113.385781 -0.0009375 C -113.385781 -62.622031 -62.624062 -113.387656 0.0009375 -113.387656 C 62.622031 -113.387656 113.387656 -62.622031 113.387656 -0.0009375 Z M 113.387656 -0.0009375 " transform="matrix(1,0,0,-1,113.585,113.585)"/>
</g>
<path style="fill-rule:nonzero;fill:rgb(100%,79.998779%,79.998779%);fill-opacity:1;stroke-width:0.3985;stroke-linecap:butt;stroke-linejoin:miter;stroke:rgb(0%,0%,0%);stroke-opacity:1;stroke-dasharray:0.49814,0.99628;stroke-miterlimit:10;" d="M 2.989219 -0.0009375 C 2.989219 1.651406 1.649375 2.987344 0.0009375 2.987344 C -1.651406 2.987344 -2.987344 1.651406 -2.987344 -0.0009375 C -2.987344 -1.649375 -1.651406 -2.989219 0.0009375 -2.989219 C 1.649375 -2.989219 2.989219 -1.649375 2.989219 -0.0009375 Z M 2.989219 -0.0009375 " transform="matrix(1,0,0,-1,113.585,113.585)"/>
<path style="fill:none;stroke-width:0.3985;stroke-linecap:butt;stroke-linejoin:miter;stroke:rgb(100%,0%,0%);stroke-opacity:1;stroke-miterlimit:10;" d="M 110.551719 -0.0009375 C 110.551719 46.967812 72.4775 85.042031 25.512656 85.042031 C -21.456094 85.042031 -59.530312 46.967812 -59.530312 -0.0009375 C -59.530312 -46.965781 -21.456094 -85.04 25.512656 -85.04 C 72.4775 -85.04 110.551719 -46.965781 110.551719 -0.0009375 Z M 110.551719 -0.0009375 " transform="matrix(1,0,0,-1,113.585,113.585)"/>
<path style="fill-rule:nonzero;fill:rgb(100%,79.998779%,79.998779%);fill-opacity:1;stroke-width:0.3985;stroke-linecap:butt;stroke-linejoin:miter;stroke:rgb(0%,0%,0%);stroke-opacity:1;stroke-dasharray:0.49814,0.99628;stroke-miterlimit:10;" d="M 28.500938 -0.0009375 C 28.500938 1.651406 27.161094 2.987344 25.512656 2.987344 C 23.860313 2.987344 22.524375 1.651406 22.524375 -0.0009375 C 22.524375 -1.649375 23.860313 -2.989219 25.512656 -2.989219 C 27.161094 -2.989219 28.500938 -1.649375 28.500938 -0.0009375 Z M 28.500938 -0.0009375 " transform="matrix(1,0,0,-1,113.585,113.585)"/>
<path style="fill:none;stroke-width:0.3985;stroke-linecap:butt;stroke-linejoin:miter;stroke:rgb(100%,0%,0%);stroke-opacity:1;stroke-miterlimit:10;" d="M 107.715781 -0.0009375 C 107.715781 31.311562 82.336875 56.694375 51.024375 56.694375 C 19.711875 56.694375 -5.670937 31.311562 -5.670937 -0.0009375 C -5.670937 -31.309531 19.711875 -56.692344 51.024375 -56.692344 C 82.336875 -56.692344 107.715781 -31.309531 107.715781 -0.0009375 Z M 107.715781 -0.0009375 " transform="matrix(1,0,0,-1,113.585,113.585)"/>
<path style="fill-rule:nonzero;fill:rgb(100%,79.998779%,79.998779%);fill-opacity:1;stroke-width:0.3985;stroke-linecap:butt;stroke-linejoin:miter;stroke:rgb(0%,0%,0%);stroke-opacity:1;stroke-dasharray:0.49814,0.99628;stroke-miterlimit:10;" d="M 54.012656 -0.0009375 C 54.012656 1.651406 52.672813 2.987344 51.024375 2.987344 C 49.372031 2.987344 48.036094 1.651406 48.036094 -0.0009375 C 48.036094 -1.649375 49.372031 -2.989219 51.024375 -2.989219 C 52.672813 -2.989219 54.012656 -1.649375 54.012656 -0.0009375 Z M 54.012656 -0.0009375 " transform="matrix(1,0,0,-1,113.585,113.585)"/>
<path style="fill:none;stroke-width:0.3985;stroke-linecap:butt;stroke-linejoin:miter;stroke:rgb(100%,0%,0%);stroke-opacity:1;stroke-miterlimit:10;" d="M 104.88375 -0.0009375 C 104.88375 15.655312 92.192344 28.346719 76.536094 28.346719 C 60.879844 28.346719 48.188438 15.655312 48.188438 -0.0009375 C 48.188438 -15.657188 60.879844 -28.348594 76.536094 -28.348594 C 92.192344 -28.348594 104.88375 -15.657188 104.88375 -0.0009375 Z M 104.88375 -0.0009375 " transform="matrix(1,0,0,-1,113.585,113.585)"/>
<path style="fill-rule:nonzero;fill:rgb(100%,79.998779%,79.998779%);fill-opacity:1;stroke-width:0.3985;stroke-linecap:butt;stroke-linejoin:miter;stroke:rgb(0%,0%,0%);stroke-opacity:1;stroke-dasharray:0.49814,0.99628;stroke-miterlimit:10;" d="M 79.524375 -0.0009375 C 79.524375 1.651406 78.188438 2.987344 76.536094 2.987344 C 74.88375 2.987344 73.547813 1.651406 73.547813 -0.0009375 C 73.547813 -1.649375 74.88375 -2.989219 76.536094 -2.989219 C 78.188438 -2.989219 79.524375 -1.649375 79.524375 -0.0009375 Z M 79.524375 -0.0009375 " transform="matrix(1,0,0,-1,113.585,113.585)"/>
<path style="fill:none;stroke-width:1.59404;stroke-linecap:butt;stroke-linejoin:miter;stroke:rgb(0%,0%,0%);stroke-opacity:1;stroke-miterlimit:10;" d="M 102.047813 -0.0009375 L 115.372031 -0.0009375 " transform="matrix(1,0,0,-1,113.585,113.585)"/>
<path style=" stroke:none;fill-rule:nonzero;fill:rgb(0%,0%,0%);fill-opacity:1;" d="M 232.789063 113.585938 C 232.320313 113.375 230.25 112.171875 228.957031 110.867188 L 228.957031 116.304688 C 230.25 114.996094 232.320313 113.796875 232.789063 113.585938 Z M 232.789063 113.585938 "/>
<g clip-path="url(#clip2)" clip-rule="nonzero">
<path style="fill:none;stroke-width:1.13383;stroke-linecap:butt;stroke-linejoin:miter;stroke:rgb(0%,0%,0%);stroke-opacity:1;stroke-miterlimit:10;" d="M 3.833462 -0.0009375 C 3.364712 0.21 1.2944 1.413125 0.00143125 2.717812 L 0.00143125 -2.719688 C 1.2944 -1.411094 3.364712 -0.211875 3.833462 -0.0009375 Z M 3.833462 -0.0009375 " transform="matrix(1,0,0,-1,228.9556,113.585)"/>
</g>
<path style="fill-rule:nonzero;fill:rgb(100%,0%,0%);fill-opacity:1;stroke-width:0.3985;stroke-linecap:butt;stroke-linejoin:miter;stroke:rgb(0%,0%,0%);stroke-opacity:1;stroke-miterlimit:10;" d="M 105.036094 -0.0009375 C 105.036094 1.651406 103.700156 2.987344 102.047813 2.987344 C 100.395469 2.987344 99.059531 1.651406 99.059531 -0.0009375 C 99.059531 -1.649375 100.395469 -2.989219 102.047813 -2.989219 C 103.700156 -2.989219 105.036094 -1.649375 105.036094 -0.0009375 Z M 105.036094 -0.0009375 " transform="matrix(1,0,0,-1,113.585,113.585)"/>
</g>
</svg>

<svg data-optimized="true" xmlns="http://www.w3.org/2000/svg" width="313.139" height="302.893" viewBox="0 0 234.854 227.17"><defs><clipPath id="a"><path d="M0 0h233v227.172H0Zm0 0"/></clipPath><clipPath id="b"><path d="M212 94h22.855v39H212Zm0 0"/></clipPath></defs><path d="M0 227.172h234.855V0H0Zm0 0" style="stroke:none;fill-rule:nonzero;fill:#ffe4c8;fill-opacity:1"/><g clip-path="url(#a)"><path d="M113.388 0c0 62.624-50.766 113.386-113.387 113.386-62.625 0-113.387-50.762-113.387-113.387 0-62.621 50.762-113.387 113.387-113.387 62.621 0 113.387 50.766 113.387 113.387Zm0 0" style="fill:none;stroke-width:.3985;stroke-linecap:butt;stroke-linejoin:miter;stroke:red;stroke-opacity:1;stroke-miterlimit:10" transform="matrix(1 0 0 -1 113.585 113.585)"/></g><path d="M2.99 0a2.988 2.988 0 1 1-5.977 0 2.988 2.988 0 0 1 5.976 0Zm0 0" style="fill-rule:nonzero;fill:#fcc;fill-opacity:1;stroke-width:.3985;stroke-linecap:butt;stroke-linejoin:miter;stroke:#000;stroke-opacity:1;stroke-dasharray:.49814,.99628;stroke-miterlimit:10" transform="matrix(1 0 0 -1 113.585 113.585)"/><path d="M110.552 0c0 46.968-38.074 85.042-85.04 85.042-46.968 0-85.042-38.074-85.042-85.043 0-46.965 38.074-85.039 85.043-85.039 46.965 0 85.039 38.074 85.039 85.04Zm0 0" style="fill:none;stroke-width:.3985;stroke-linecap:butt;stroke-linejoin:miter;stroke:red;stroke-opacity:1;stroke-miterlimit:10" transform="matrix(1 0 0 -1 113.585 113.585)"/><path d="M28.5 0a2.988 2.988 0 1 1-5.976 0 2.988 2.988 0 0 1 5.977 0Zm0 0" style="fill-rule:nonzero;fill:#fcc;fill-opacity:1;stroke-width:.3985;stroke-linecap:butt;stroke-linejoin:miter;stroke:#000;stroke-opacity:1;stroke-dasharray:.49814,.99628;stroke-miterlimit:10" transform="matrix(1 0 0 -1 113.585 113.585)"/><path d="M107.716 0c0 31.312-25.38 56.694-56.692 56.694S-5.67 31.312-5.67 0c0-31.309 25.383-56.691 56.695-56.691S107.716-31.31 107.716-.001Zm0 0" style="fill:none;stroke-width:.3985;stroke-linecap:butt;stroke-linejoin:miter;stroke:red;stroke-opacity:1;stroke-miterlimit:10" transform="matrix(1 0 0 -1 113.585 113.585)"/><path d="M54.013 0a2.988 2.988 0 1 1-5.977 0 2.988 2.988 0 0 1 5.977 0Zm0 0" style="fill-rule:nonzero;fill:#fcc;fill-opacity:1;stroke-width:.3985;stroke-linecap:butt;stroke-linejoin:miter;stroke:#000;stroke-opacity:1;stroke-dasharray:.49814,.99628;stroke-miterlimit:10" transform="matrix(1 0 0 -1 113.585 113.585)"/><path d="M104.884 0c0 15.655-12.692 28.347-28.348 28.347S48.188 15.655 48.188-.001 60.88-28.349 76.536-28.349 104.884-15.657 104.884 0Zm0 0" style="fill:none;stroke-width:.3985;stroke-linecap:butt;stroke-linejoin:miter;stroke:red;stroke-opacity:1;stroke-miterlimit:10" transform="matrix(1 0 0 -1 113.585 113.585)"/><path d="M79.524 0a2.986 2.986 0 0 1-2.988 2.987A2.988 2.988 0 1 1 79.524 0Zm0 0" style="fill-rule:nonzero;fill:#fcc;fill-opacity:1;stroke-width:.3985;stroke-linecap:butt;stroke-linejoin:miter;stroke:#000;stroke-opacity:1;stroke-dasharray:.49814,.99628;stroke-miterlimit:10" transform="matrix(1 0 0 -1 113.585 113.585)"/><path d="M102.048 0h13.324" style="fill:none;stroke-width:1.59404;stroke-linecap:butt;stroke-linejoin:miter;stroke:#000;stroke-opacity:1;stroke-miterlimit:10" transform="matrix(1 0 0 -1 113.585 113.585)"/><path d="M232.79 113.586c-.47-.211-2.54-1.414-3.833-2.719v5.438c1.293-1.309 3.363-2.508 3.832-2.72m0 0" style="stroke:none;fill-rule:nonzero;fill:#000;fill-opacity:1"/><g clip-path="url(#b)"><path d="M3.833 0C3.365.21 1.294 1.412.001 2.717V-2.72C1.294-1.41 3.365-.212 3.833 0Zm0 0" style="fill:none;stroke-width:1.13383;stroke-linecap:butt;stroke-linejoin:miter;stroke:#000;stroke-opacity:1;stroke-miterlimit:10" transform="matrix(1 0 0 -1 228.956 113.585)"/></g><path d="M105.036 0a2.986 2.986 0 0 1-2.988 2.987A2.988 2.988 0 1 1 105.036 0Zm0 0" style="fill-rule:nonzero;fill:red;fill-opacity:1;stroke-width:.3985;stroke-linecap:butt;stroke-linejoin:miter;stroke:#000;stroke-opacity:1;stroke-miterlimit:10" transform="matrix(1 0 0 -1 113.585 113.585)"/></svg>
